X: 21804
T: King, The
R: jig
M: 6/8
K: Gmajor
|:G3 AGA|Bcd efg|G3 AGA|BGE E2 D|
G3 AGA|Bcd efg|edB AGA|BGE G3:|
|:g3 efg|fed edB|gfg aga|bge e2 f|
gfg aga|bge edB|edB AGA|BGE G3:|
|:DEG BGG|AGG BGG|efg edB|AGA BGE|
DEG BGG|AGG BGG|efg edB|AGF G3:|
|:efg fBB|bag fBB|eBB fBB|gfe fBB|
efg fBB|bag fBB|efg fed|egf e3:|

